X:34
T:Winter - L'Inverno (RV 297) - Largo
C:Vivaldi, A.
M:4/4
L:1/8
Q:1/4=52
K:Eb
|:B2|e4 e4|e4 efge|f4 f4|f4 fgaf|
g4 g4|g4 gabe|f4 e4|d4 d2B2|
e4 e4|e4 efge|f4 e4|d4 d2Bc|
d4 c4|B4 Bcde|f4 e4|e8:|

